X:69
T:MGYLWDR2- Moggy Lawther
S:from The Quaker's Operaa, 1728
Q:1/4=120
L:1/4
M:C
K:A
B/|A3/4B/4A3/4A/4 A3/4B/4A3/4A/4|B3/4c/4B3/4A/4 G3/4A/4B3/4B/4|\
c3/4A/4A3/4A/4 A3/4B/4A3/4A/4|c3/4d/4e3/4d/4 c3/4d/4e3/4e/4|\
f3/4e/4d3/4c/4 d3/4c/4B3/4c/4|d3/4e/4B3/4A/4 G3/4A/4B3/4B/4|\
A3/4G/4F3/4E/4 D3/4C/4B,3/4d/4|c3/4d/4B3/4c/4 AA|]

